icons/Finance/vip-diamond-line.svg

<svg viewBox="0 0 24 24" xmlns="http://www.w3.org/2000/svg"><path d="M4.87759 3.00293H19.1319C19.4518 3.00293 19.7524 3.15601 19.9406 3.41476L23.7634 8.67115C23.9037 8.86403 23.8882 9.12913 23.7265 9.30438L12.3721 21.6049C12.1848 21.8078 11.8685 21.8205 11.6656 21.6332C11.6591 21.6271 7.86486 17.5175 0.282992 9.30438C0.121226 9.12913 0.10575 8.86403 0.246026 8.67115L4.06886 3.41476C4.25704 3.15601 4.55766 3.00293 4.87759 3.00293ZM5.38682 5.00293L2.58738 8.85216L12.0047 19.0543L21.4221 8.85216L18.6226 5.00293H5.38682Z"/></svg>

<svg xmlns="http://www.w3.org/2000/svg" viewBox="0 0 24 24">
    <g>
        <path fill="none" d="M0 0h24v24H0z"/>
        <path d="M4.873 3h14.254a1 1 0 0 1 .809.412l3.823 5.256a.5.5 0 0 1-.037.633L12.367 21.602a.5.5 0 0 1-.706.028c-.007-.006-3.8-4.115-11.383-12.329a.5.5 0 0 1-.037-.633l3.823-5.256A1 1 0 0 1 4.873 3zm.51 2l-2.8 3.85L12 19.05 21.417 8.85 18.617 5H5.383z"/>
    </g>
</svg>
